public/icons/furniture_icon.svg

<svg width="330" height="330" viewBox="0 0 330 330" fill="none" xmlns="http://www.w3.org/2000/svg">
<path d="M74.0981 41.7451C79.5206 41.1395 84.06 41.0971 88.7316 44.2254C92.7424 46.9111 110.03 59.175 110.838 63.2235C107.98 65.2758 103.591 64.8933 100.075 65.7707C96.5014 70.637 97.7328 75.3365 95.2166 80.048C92.7424 84.6827 85.4885 87.0005 80.8495 88.7612C83.4821 94.8019 85.6091 100.776 87.024 107.22C88.4987 113.937 89.1438 136.299 92.4717 140.117C95.1746 140.496 97.3363 140.751 100.05 140.105C102.356 135.046 99.8546 128.241 101.546 122.7C102.353 120.06 103.724 118.215 106.203 116.949C109.535 115.248 113.453 114.428 117.157 114.115C132.895 112.786 149.379 114.163 165.204 114.164C182.802 114.164 200.851 112.911 218.392 113.865C221.996 114.061 225.693 114.47 229.121 115.659C241.793 120.058 234.358 132.056 238.858 141.033C241.155 139.522 241.501 134.313 242.144 131.555C247.168 110.018 253.534 95.2682 267.814 78.3189C265.892 72.5335 263.793 66.4441 264.145 60.2753C264.486 54.2751 267.54 49.5609 272.038 45.7306C275.58 42.7152 279.57 40.6219 284.342 41.0573C293.574 41.8995 300.346 51.425 307.534 56.4176C309.719 57.9357 313.683 58.8571 315.232 60.9289C316.065 62.0436 315.648 62.4128 315.431 63.7101C312.269 65.5076 307.574 65.0258 303.974 65.0736C303.364 69.3029 303.012 73.9376 301.145 77.8249C298.028 84.3183 292.327 86.3735 285.913 88.647C290.274 98.5923 294.469 110.119 294.457 121.15C294.449 127.451 290.564 139.117 292.53 144.639C296.576 156.012 315.067 153.729 324.06 157.391C326.458 158.367 328.559 160 329.457 162.504C330.431 165.218 330.047 169.405 328.69 171.96C327.406 174.378 325.045 175.873 322.45 176.55C311.544 179.39 299.63 173.312 290.387 168.138C289.485 169.757 287.326 172.603 286.957 174.289C286.572 176.05 309.21 246.141 310.567 256.116C311.024 259.478 309.041 261.029 307.171 263.575L307.724 264.501C312.606 261.824 317.523 259.026 323.246 259.304C325.3 260.314 326.1 260.451 327.046 262.656C328.042 264.975 327.599 267.923 326.525 270.144C323.233 276.951 311.854 284.359 304.83 286.882C301.256 288.166 297.374 288.139 293.965 286.386C279.802 279.104 274.339 250.804 270.044 236.811C269.779 235.994 269.116 235.109 268.682 234.354C262.344 235.877 248.67 254.283 242.023 259.539C238.828 262.064 234.417 261.918 231.732 264.497C232.412 272.746 242.965 272.746 244.624 281.169C245.064 283.407 244.436 284.207 243.207 285.887C240.109 287.493 237.295 287.847 233.846 287.461C224.899 286.458 217.294 280.332 212.017 273.357C198.89 256.006 213.394 255.931 214.556 245.98C215.536 237.599 231.362 227.217 238.021 221.659C189.187 221.088 140.268 221.718 91.425 221.774C98.6652 233.231 106.454 244.922 111.989 257.313L106.376 266.032C111.207 262.825 116.952 259.346 122.912 258.92C125.209 258.756 126.336 259.186 128.082 260.585C128.872 262.545 128.942 263.803 128.525 265.892C127.004 273.493 119.235 280.338 112.933 284.133C108.815 286.613 103.586 288.807 98.7271 287.327C86.3601 283.562 66.5789 243.262 60.2124 231.504C54.4039 241.368 47.4851 251.259 38.6998 258.708C35.4535 261.46 26.522 264.15 25.1934 266.666C28.0972 271.694 35.9977 273.416 37.9877 278.961C38.5666 280.574 38.5481 282.001 37.6091 283.497C36.0632 285.959 33.2747 287.628 30.4207 287.949C24.0814 288.663 17.5616 284.589 12.877 280.762C8.21771 276.956 -2.60512 266.565 0.575817 259.591C1.72776 257.066 4.83235 254.457 5.46596 251.796C5.7696 250.521 4.97342 247.296 4.81547 245.851C9.10483 239.701 14.9046 234.288 19.8598 228.627C25.4536 222.237 30.0582 215.418 34.6062 208.258C33.8129 202.774 32.9951 197.264 32.601 191.735C30.464 161.756 37.5572 119.061 52.4142 92.768C55.6048 87.1214 59.9198 82.3111 64.1477 77.4318C61.2885 70.075 58.5437 62.4942 61.1794 54.5915C63.3296 48.1439 68.2633 44.6455 74.0981 41.7451Z" fill="black"/>
<path d="M120.195 119.481C139.398 119.483 218.767 116.472 230 122.458C233.877 127.47 231.761 162.109 231.708 170.153L219.546 170.123L106.291 170.054C106.589 160 102.949 128.505 109.694 121.969C112.534 119.216 116.503 119.58 120.195 119.481Z" fill="#FEFEFE"/>
<path d="M85.8428 198.694C141.289 198.944 196.797 197.872 252.229 198.814L252.142 215.893L86.1018 216.05C85.8858 210.274 85.913 204.474 85.8428 198.694Z" fill="#FEFEFE"/>
<path d="M94.7863 176.185C112.813 175.384 131.04 175.886 149.088 175.872L242.422 175.97C246.215 178.315 249.315 181.088 251.358 185.116C252.637 187.638 252.447 189.097 251.552 191.616C248.71 193.585 247.272 193.211 243.871 193.274L135.46 193.276C122.686 193.303 100.903 194.978 88.9883 193.094C86.7626 192.742 86.428 192.268 85.139 190.591C85.1107 189.484 85.1652 188.433 85.44 187.353C86.6735 182.513 90.6958 178.655 94.7863 176.185Z" fill="#FEFEFE"/>
<path d="M60.2834 91.6633C65.2214 91.4433 69.6559 90.8205 73.7327 94.1965C82.1403 101.16 83.938 116.591 84.6628 126.869C85.2365 135.014 84.4236 142.88 78.9203 149.235C75.8178 150.453 71.7232 149.446 68.457 149.025C66.2796 142.144 64.9371 120.809 59.9257 117.072L58.1909 118.745C57.184 122.725 58.2528 127.874 58.6189 131.969C60.8529 146.846 62.0885 155.281 61.8724 170.569C54.0564 169.323 46.4425 167.517 38.7607 165.626C41.3385 144.151 46.5175 108.951 60.2834 91.6633Z" fill="#FDCE01"/>
<path d="M38.0109 171.415C45.8248 173.428 53.6398 175.32 61.6656 176.239C61.8712 188.698 63.5241 203.444 60.7111 215.598C57.0475 231.42 42.832 250.027 29.027 258.504C28.3208 258.617 27.6154 258.714 26.9012 258.76C23.6075 258.972 16.2011 257.705 13.8325 255.321C5.61483 247.052 36.3219 219.161 40.8549 212.337C41.175 211.856 41.6708 210.893 41.7372 210.314C42.2323 205.992 39.0148 194.903 38.4266 189.888C37.7052 183.736 37.8228 177.594 38.0109 171.415Z" fill="#FEFEFE"/>
<path d="M265.144 91.4398C268.107 91.2363 271.319 91.225 274.232 91.8757C278.454 92.8188 281.705 95.7504 283.88 99.3893C290.902 111.134 288.374 130.921 285.219 143.656C286.455 146.034 287.364 148.158 288.054 150.767C287.49 152.324 287.594 152.893 286.045 153.646C278.628 157.251 278.112 146.704 274.429 143.128C272.841 141.587 269.756 140.733 267.682 139.99L266.869 137.812C266.634 131.965 267.592 124.665 265.605 119.194L264.021 118.617L262.193 120.068C259.73 126.456 261.25 134.722 261.859 141.4C256.535 141.129 251.178 141.137 245.846 141.04C249.755 124.499 253.607 104.605 265.144 91.4398Z" fill="#FDCE01"/>
<path d="M277.514 176.492C278.117 176.809 278.689 177.135 279.235 177.549C287.22 183.608 302.555 246.206 304.519 259.129C302.234 260.497 299.809 261.679 297.454 262.927C293.685 264.765 289.774 266.381 285.942 268.093C281.128 254.832 277.725 240.831 273.307 227.386C280.644 213.696 277.48 191.818 277.514 176.492Z" fill="#FEFEFE"/>
<path d="M66.2589 221.829L85.2818 221.828C91.0578 234.311 99.8125 245.454 105.838 257.935L98.8874 263.655C95.335 265.736 91.9189 267.364 88.0487 268.769C83.0173 260.388 78.0815 251.951 73.24 243.458C69.4191 236.757 64.1234 229.641 66.2589 221.829Z" fill="#FEFEFE"/>
<path d="M257.935 147.054C262.477 146.839 267.085 147.113 271.631 147.226C272.375 170.031 271.682 193.125 271.667 215.954L258.017 215.972L257.935 147.054Z" fill="#FEFEFE"/>
<path d="M246.397 221.781C254.037 221.581 261.723 221.838 269.365 221.935C260.903 233.684 249.875 245.075 238.834 254.43C236.886 255.831 235.233 256.808 232.77 256.882C229.41 256.983 225.423 255.561 223.182 253.028C221.796 251.477 221.109 249.426 221.282 247.354C221.978 239.384 240.314 227.381 246.397 221.781Z" fill="#FEFEFE"/>
<path d="M67.1869 155.093L80.4129 155.21C79.2371 175.293 79.964 195.84 80.3311 215.96L67.1597 216.087C67.2876 195.756 67.296 175.424 67.1869 155.093Z" fill="#FEFEFE"/>
<path d="M270.014 65.2426C276.093 65.1402 291.04 63.0386 296.038 66.1701C297.829 67.2932 297.723 67.8889 298.087 69.824C296.31 75.579 294.888 78.1844 289.762 81.5631L284.604 81.8591C282.579 84.0112 280.485 86.3999 277.493 87.1296C274.785 87.7903 272.728 86.5109 270.503 85.1774C271 84.2633 271.486 83.3481 271.917 82.4013C274.484 76.7732 272.022 70.6142 270.014 65.2426Z" fill="#FEFEFE"/>
<path d="M66.4348 65.3043C72.9796 65.3501 81.749 63.6449 88.0159 65.0101C90.7303 65.6015 91.4624 66.3819 92.9266 68.5473C92.9969 70.0682 92.9182 71.3752 92.399 72.8251C90.9201 76.9469 87.9687 79.4887 84.0911 81.2468C82.3228 81.1393 80.8292 81.2114 79.0797 81.5023C77.0408 84.2513 75.5818 85.728 72.4667 87.2308C69.6391 87.5351 68.2315 86.5987 65.9587 85.1107L65.6304 83.3483C67.6903 81.3053 68.5273 79.0455 69.5814 76.4162C68.8587 72.6602 67.5561 68.9612 66.4348 65.3043Z" fill="#FEFEFE"/>
<path d="M86.2905 146.401L100.69 146.552C100.805 151.655 102.434 166.004 99.3434 169.863L96.951 169.871C92.3633 171.086 89.4234 172.928 85.7535 175.91C85.6685 166.07 85.8468 156.231 86.2905 146.401Z" fill="#FEFEFE"/>
<path d="M237.537 146.696L252.261 147.048L252.364 176.171C247.426 172.043 243.626 170.535 237.265 169.532C237.251 161.923 237.433 154.305 237.537 146.696Z" fill="#FEFEFE"/>
<path d="M293.293 154.902C301.697 159.469 309.269 159.764 318.262 161.941C321.247 162.663 322.493 163.476 324.068 166.011C323.383 169.116 322.383 169.533 320.027 171.504C319.294 171.586 318.568 171.65 317.83 171.669C310.123 171.87 296.551 167.516 291.143 161.94C289.608 160.355 289.118 159.772 289.205 157.613L293.293 154.902Z" fill="#FEFEFE"/>
<path d="M216.442 254.677C218.512 255.692 222.874 258.349 224.103 260.224C226.331 263.619 225.943 268.537 228.336 272.129C230.692 275.664 235.22 277.005 237.486 280.571L236.076 283.15C232.563 282.308 229.271 281.311 226.331 279.131C220.947 275.139 213.296 267.768 212.969 260.522C212.841 257.661 214.639 256.529 216.442 254.677Z" fill="#FEFEFE"/>
<path d="M279.358 47.4728C285.227 47.3469 288.409 47.9178 293.2 51.4992C295.641 53.3246 297.001 54.8679 297.445 57.8864C295.24 60.0929 293.612 59.507 290.611 59.6038C284.897 59.7735 277.848 60.6825 272.424 58.6925C270.718 58.0664 270.844 57.7858 270.069 56.1365C271.434 52.2677 276.074 49.6606 279.358 47.4728Z" fill="#FDCE01"/>
<path d="M74.8968 47.6137C81.6461 47.1075 85.3559 47.7362 90.512 52.4722C92.486 54.2856 92.7954 55.342 92.9107 57.8587C90.5938 59.8638 88.814 59.348 85.8478 59.442L75.0216 59.5388C71.6821 59.5421 68.8492 59.4063 66.4043 56.9824C67.3126 52.3571 71.1671 50.1443 74.8968 47.6137Z" fill="#FDCE01"/>
<path d="M318.476 265.835L320.833 266.193C320.908 267.139 321.199 267.814 320.662 268.637C316.891 274.405 307.825 280.273 301.12 281.541C297.997 282.131 296.557 281.336 294.046 279.694C291.821 276.575 290.755 274.577 291.155 270.777C297.607 267.021 301.502 272.592 307.276 271.372C310.783 270.631 315.258 267.553 318.476 265.835Z" fill="#FEFEFE"/>
<path d="M8.39487 257.489C11.7258 259.469 15.9277 261.488 18.0782 264.776C21.8489 270.543 29.6883 277.445 31.6536 280.743L30.4228 283.287C27.2747 282.498 24.2489 281.642 21.49 279.878C15.9437 276.332 7.22247 269.601 6.05311 262.768C5.68067 260.592 7.22688 259.176 8.39487 257.489Z" fill="#FEFEFE"/>
<path d="M121.69 264.797L122.481 266.241C122.351 267.493 122.196 268.437 121.495 269.516C118.166 274.65 108.563 281.064 102.366 281.633C99.3196 281.913 98.4731 281.013 96.1122 279.31C94.6302 276.92 93.553 275.315 93.7166 272.368C97.7893 267.671 102.546 272.599 107.488 271.673C111.782 270.869 117.496 266.67 121.69 264.797Z" fill="#FEFEFE"/>
<path d="M276.711 158.639C279.023 159.866 281.147 161.252 283.303 162.724C284.619 165.919 284.028 166.718 283.068 169.903C280.542 170.54 280.619 170.546 278.371 169.229C276.601 166.047 276.856 162.186 276.711 158.639Z" fill="#FEFEFE"/>
</svg>

<svg xmlns="http://www.w3.org/2000/svg" width="330" height="330" fill="none" viewBox="0 0 330 330"><path fill="#000" d="M74.098 41.745c5.423-.605 9.962-.648 14.634 2.48 4.01 2.686 21.298 14.95 22.106 18.999-2.858 2.052-7.247 1.67-10.763 2.547-3.574 4.866-2.342 9.566-4.858 14.277-2.475 4.635-9.728 6.953-14.367 8.713 2.632 6.04 4.76 12.015 6.174 18.459 1.475 6.717 2.12 29.079 5.448 32.897 2.703.379 4.864.634 7.578-.012 2.306-5.059-.195-11.864 1.496-17.405.807-2.64 2.178-4.485 4.657-5.751 3.332-1.701 7.25-2.521 10.954-2.834 15.738-1.329 32.222.048 48.047.049 17.598 0 35.647-1.253 53.188-.299 3.604.196 7.301.605 10.729 1.794 12.672 4.399 5.237 16.397 9.737 25.374 2.297-1.511 2.643-6.72 3.286-9.478 5.024-21.537 11.39-36.287 25.67-53.236-1.922-5.785-4.021-11.875-3.669-18.044.341-6 3.395-10.714 7.893-14.544 3.542-3.016 7.532-5.11 12.304-4.674 9.232.843 16.004 10.368 23.192 15.36 2.185 1.519 6.149 2.44 7.698 4.512.833 1.115.416 1.484.199 2.781-3.162 1.798-7.857 1.316-11.457 1.364-.61 4.229-.962 8.864-2.829 12.75-3.117 6.494-8.818 8.55-15.232 10.823 4.361 9.945 8.556 21.472 8.544 32.503-.008 6.301-3.893 17.967-1.927 23.489 4.046 11.373 22.537 9.09 31.53 12.752 2.398.976 4.499 2.609 5.397 5.113.974 2.714.59 6.901-.767 9.456-1.284 2.418-3.645 3.913-6.24 4.59-10.906 2.84-22.82-3.238-32.063-8.412-.902 1.619-3.061 4.465-3.43 6.151-.385 1.761 22.253 71.852 23.61 81.827.457 3.362-1.526 4.913-3.396 7.459l.553.926c4.882-2.677 9.799-5.475 15.522-5.197 2.054 1.01 2.854 1.147 3.8 3.352.996 2.319.553 5.267-.521 7.488-3.292 6.807-14.671 14.215-21.695 16.738-3.574 1.284-7.456 1.257-10.865-.496-14.163-7.282-19.626-35.582-23.921-49.575-.265-.817-.928-1.702-1.362-2.457-6.338 1.523-20.012 19.929-26.659 25.185-3.195 2.525-7.606 2.379-10.291 4.958.68 8.249 11.233 8.249 12.892 16.672.44 2.238-.188 3.038-1.417 4.718-3.098 1.606-5.912 1.96-9.361 1.574-8.947-1.003-16.552-7.129-21.829-14.104-13.127-17.351 1.377-17.426 2.539-27.377.98-8.381 16.806-18.763 23.465-24.321-48.834-.571-97.753.059-146.596.115 7.24 11.457 15.029 23.148 20.564 35.539l-5.613 8.719c4.831-3.207 10.576-6.686 16.536-7.112 2.297-.164 3.424.266 5.17 1.665.79 1.96.86 3.218.443 5.307-1.521 7.601-9.29 14.446-15.592 18.241-4.118 2.48-9.347 4.674-14.206 3.194-12.367-3.765-32.148-44.065-38.515-55.823-5.808 9.864-12.727 19.755-21.512 27.204-3.247 2.752-12.178 5.442-13.507 7.958 2.904 5.028 10.805 6.75 12.795 12.295.579 1.613.56 3.04-.379 4.536-1.546 2.462-4.334 4.131-7.188 4.452-6.34.714-12.86-3.36-17.544-7.187-4.66-3.806-15.482-14.197-12.301-21.171 1.152-2.525 4.256-5.134 4.89-7.795.304-1.275-.493-4.5-.65-5.945 4.289-6.15 10.089-11.563 15.044-17.224 5.594-6.39 10.198-13.209 14.746-20.369-.793-5.484-1.61-10.994-2.005-16.523-2.137-29.979 4.956-72.674 19.813-98.967 3.19-5.647 7.506-10.457 11.734-15.336-2.86-7.357-5.604-14.938-2.969-22.84 2.15-6.448 7.084-9.946 12.92-12.847"/><path fill="#fefefe" d="M120.195 119.481c19.203.002 98.572-3.009 109.805 2.977 3.877 5.012 1.761 39.651 1.708 47.695l-12.162-.03-113.255-.069c.298-10.054-3.342-41.549 3.403-48.085 2.84-2.753 6.809-2.389 10.501-2.488m-34.352 79.213c55.446.25 110.954-.822 166.386.12l-.087 17.079-166.04.157c-.216-5.776-.189-11.576-.26-17.356m8.944-22.509c18.027-.801 36.254-.299 54.302-.313l93.334.098c3.793 2.345 6.893 5.118 8.936 9.146 1.279 2.522 1.089 3.981.194 6.5-2.842 1.969-4.28 1.595-7.681 1.658l-108.411.002c-12.774.027-34.557 1.702-46.472-.182-2.225-.352-2.56-.826-3.849-2.503-.028-1.107.026-2.158.301-3.238 1.234-4.84 5.256-8.698 9.346-11.168"/><path fill="#fdce01" d="M60.283 91.663c4.938-.22 9.373-.843 13.45 2.534 8.407 6.963 10.205 22.394 10.93 32.672.574 8.145-.24 16.011-5.743 22.366-3.102 1.218-7.197.211-10.463-.21-2.177-6.881-3.52-28.216-8.531-31.953l-1.735 1.673c-1.007 3.98.062 9.129.428 13.224 2.234 14.877 3.47 23.312 3.253 38.6-7.816-1.246-15.43-3.052-23.111-4.943 2.578-21.475 7.756-56.675 21.522-73.963"/><path fill="#fefefe" d="M38.01 171.415c7.815 2.013 15.63 3.905 23.656 4.824.205 12.459 1.858 27.205-.955 39.359-3.663 15.822-17.879 34.429-31.684 42.906a23 23 0 0 1-2.126.256c-3.293.212-10.7-1.055-13.068-3.439-8.218-8.269 22.489-36.16 27.022-42.984.32-.481.816-1.444.882-2.023.495-4.322-2.722-15.411-3.31-20.426-.722-6.152-.604-12.294-.416-18.473"/><path fill="#fdce01" d="M265.144 91.44c2.963-.204 6.175-.215 9.088.436 4.222.943 7.473 3.874 9.648 7.513 7.022 11.745 4.494 31.532 1.339 44.267 1.236 2.378 2.145 4.502 2.835 7.111-.564 1.557-.46 2.126-2.009 2.879-7.417 3.605-7.933-6.942-11.616-10.518-1.588-1.541-4.673-2.395-6.747-3.138l-.813-2.178c-.235-5.847.723-13.147-1.264-18.618l-1.584-.577-1.828 1.451c-2.463 6.388-.943 14.654-.334 21.332-5.324-.271-10.681-.263-16.013-.36 3.909-16.541 7.761-36.435 19.298-49.6"/><path fill="#fefefe" d="M277.514 176.492c.603.317 1.175.643 1.721 1.057 7.985 6.059 23.32 68.657 25.284 81.58-2.285 1.368-4.71 2.55-7.065 3.798-3.769 1.838-7.68 3.454-11.512 5.166-4.814-13.261-8.217-27.262-12.635-40.707 7.337-13.69 4.173-35.568 4.207-50.894M66.259 221.829l19.023-.001c5.776 12.483 14.53 23.626 20.556 36.107l-6.95 5.72c-3.553 2.081-6.97 3.709-10.84 5.114a1300 1300 0 0 1-14.808-25.311c-3.82-6.701-9.117-13.817-6.981-21.629m191.676-74.775c4.542-.215 9.15.059 13.696.172.744 22.805.051 45.899.036 68.728l-13.65.018zm-11.538 74.727c7.64-.2 15.326.057 22.968.154-8.462 11.749-19.49 23.14-30.531 32.495-1.948 1.401-3.601 2.378-6.064 2.452-3.36.101-7.347-1.321-9.588-3.854a7.57 7.57 0 0 1-1.9-5.674c.696-7.97 19.032-19.973 25.115-25.573m-179.21-66.688 13.226.117c-1.176 20.083-.449 40.63-.082 60.75l-13.171.127q.191-30.497.027-60.994m202.827-89.85c6.079-.103 21.026-2.204 26.024.927 1.791 1.123 1.685 1.719 2.049 3.654-1.777 5.755-3.199 8.36-8.325 11.74l-5.158.295c-2.025 2.152-4.119 4.54-7.111 5.27-2.708.661-4.765-.618-6.99-1.952.497-.914.983-1.829 1.414-2.776 2.567-5.628.105-11.787-1.903-17.158m-203.579.061c6.545.046 15.314-1.66 21.58-.294 2.715.591 3.447 1.372 4.912 3.537.07 1.521-.009 2.828-.528 4.278-1.479 4.122-4.43 6.664-8.308 8.422a21 21 0 0 0-5.011.255c-2.04 2.75-3.498 4.226-6.613 5.729-2.828.304-4.236-.632-6.508-2.12l-.329-1.763c2.06-2.043 2.897-4.302 3.951-6.932-.722-3.756-2.025-7.455-3.146-11.112m19.855 81.097 14.4.151c.115 5.103 1.744 19.452-1.347 23.311l-2.392.008c-4.588 1.215-7.528 3.057-11.197 6.039a549 549 0 0 1 .536-29.509m151.247.295 14.724.352.103 29.123c-4.938-4.128-8.738-5.636-15.099-6.639-.014-7.609.168-15.227.272-22.836m55.756 8.206c8.404 4.567 15.976 4.862 24.969 7.039 2.985.722 4.231 1.535 5.806 4.07-.685 3.105-1.685 3.522-4.041 5.493-.733.082-1.459.146-2.197.165-7.707.201-21.279-4.153-26.687-9.729-1.535-1.585-2.025-2.168-1.938-4.327zm-76.851 99.775c2.07 1.015 6.432 3.672 7.661 5.547 2.228 3.395 1.84 8.313 4.233 11.905 2.356 3.535 6.884 4.876 9.15 8.442l-1.41 2.579c-3.513-.842-6.805-1.839-9.745-4.019-5.384-3.992-13.035-11.363-13.362-18.609-.128-2.861 1.67-3.993 3.473-5.845"/><path fill="#fdce01" d="M279.358 47.473c5.869-.126 9.051.445 13.842 4.026 2.441 1.826 3.801 3.369 4.245 6.387-2.205 2.207-3.833 1.621-6.834 1.718-5.714.17-12.763 1.078-18.187-.911-1.706-.627-1.58-.907-2.355-2.556 1.365-3.87 6.005-6.476 9.289-8.664m-204.461.141c6.75-.506 10.459.122 15.615 4.858 1.974 1.814 2.283 2.87 2.399 5.387-2.317 2.005-4.097 1.489-7.063 1.583l-10.826.097c-3.34.003-6.173-.133-8.618-2.557.909-4.625 4.763-6.838 8.493-9.368"/><path fill="#fefefe" d="m318.476 265.835 2.357.358c.075.946.366 1.621-.171 2.444-3.771 5.768-12.837 11.636-19.542 12.904-3.123.59-4.563-.205-7.074-1.847-2.225-3.119-3.291-5.117-2.891-8.917 6.452-3.756 10.347 1.815 16.121.595 3.507-.741 7.982-3.819 11.2-5.537M8.395 257.489c3.33 1.98 7.533 3.999 9.683 7.287 3.77 5.767 11.61 12.669 13.576 15.967l-1.231 2.544c-3.148-.789-6.174-1.645-8.933-3.409-5.546-3.546-14.268-10.277-15.437-17.11-.372-2.176 1.174-3.592 2.342-5.279m113.295 7.308.791 1.444c-.13 1.252-.285 2.196-.986 3.275-3.329 5.134-12.932 11.548-19.129 12.117-3.046.28-3.893-.62-6.254-2.323-1.482-2.39-2.559-3.995-2.395-6.942 4.072-4.697 8.829.231 13.771-.695 4.294-.804 10.008-5.003 14.202-6.876m155.021-106.158c2.312 1.227 4.436 2.613 6.592 4.085 1.316 3.195.725 3.994-.235 7.179-2.526.637-2.449.643-4.697-.674-1.77-3.182-1.515-7.043-1.66-10.59"/></svg>
